X:1
T:le Monte y Peine
C:Frederic Paris
R:polka
A:France
Z:abc transcription Simon Wascher
M:2/4
L:1/8
K:G
D |\
G2B2 | d3e/f/ | g/f/e/d/ c/B/A/G/ | F3D |
F2A2 | c3e | d/e/d/c/ BA | B/c/B/A/ G :|
|: A/B/ |\
dB GA/B/ | cA FA | BG EG | F/G/A/G/ F/E/D |
dB GA/B/ | cA FA | BG AF | G2 G :|
%%wordsfont Times-Italic 11pt
W:aus Simon Waschers TradArchiv
